X: 21415
Q: "With fire and animation."
U: Q=!diminuendo(!
U: q=!diminuendo)!
M: 6/8
L: 1/8
K: Eb
"^p"B |\
eee (eB)e | Qg3- qg3 |\
e3 zz"^pp"A | A>AA AAc |\
_d2d c2"^f"e | eee ece |\
e>ae e2e | "cres."eee eee |
QHd3 Hqf2z | z2z z2B |\
"^p"B3 B2B | (_cB)=A B2d |\
f3- f3 | z6 "^ff"|\
e3- e3 | [e3-E3-] [e3E3] |\
"_>"g3 "_>"g3 | "_>"b3 "_>"g3 |\
fff f>ef | g3- Hg2 |]


